assets/img/decor-authorization.svg

<svg width="478" height="102" viewBox="0 0 478 102" fill="none" xmlns="http://www.w3.org/2000/svg">
<path d="M285.411 101.298L282.969 97.7147C294.177 89.548 306.677 80.3813 310.849 65.7667C312.573 59.4594 311.995 53.1574 309.12 48.0011C302.656 36.5376 288.714 36.1053 275.781 37.2511C219.875 42.1261 171.161 57.6001 126.896 84.5324L112.526 93.272L124.167 81.2407C135.661 69.3449 141.844 61.1782 145.865 47.1417C148.021 39.8344 147.88 32.5272 145.724 26.2199C139.542 8.31361 118.995 4.44382 102.896 4.29799C102.609 4.29799 102.323 4.29799 102.036 4.29799C66.5365 4.29799 30.3229 17.1938 2.72917 39.548L0 36.2511C28.599 13.0376 66.1094 -0.13951 102.896 0.00111414C127.901 0.146947 144.141 8.7407 149.745 24.7876C152.187 31.9542 152.333 40.1209 150.036 48.2876C146.875 59.173 142.276 66.9126 136.667 73.9334C178.203 50.8657 223.755 37.5376 275.495 32.9542C289.719 31.6678 305.24 32.2407 312.859 45.9907C316.307 52.1522 317.026 59.6053 315.016 67.0532C313.146 73.9334 309.552 79.6626 305.24 84.5324C346.776 60.4647 391.036 40.1209 439.182 40.548C447.802 40.6938 458.87 41.5532 467.49 47.7147C475.682 53.5844 481 65.7667 475.396 75.2199L471.656 73.074C475.828 65.9074 471.656 55.8813 465.047 51.1522C457.432 45.7042 447.229 44.9907 439.182 44.8449C438.604 44.8449 438.172 44.8449 437.599 44.8449C382.557 44.7042 332.26 72.6417 285.411 101.298Z" fill="#121212"/>
</svg>

<svg width="478" height="102" fill="none" xmlns="http://www.w3.org/2000/svg"><path d="M285.411 101.298l-2.442-3.583c11.208-8.167 23.708-17.334 27.88-31.948 1.724-6.308 1.146-12.61-1.729-17.766-6.464-11.463-20.406-11.896-33.339-10.75-55.906 4.875-104.62 20.35-148.885 47.281l-14.37 8.74 11.641-12.031c11.494-11.896 17.677-20.063 21.698-34.1 2.156-7.307 2.015-14.614-.141-20.921-6.182-17.906-26.729-21.776-42.828-21.922h-.86c-35.5 0-71.713 12.896-99.307 35.25L0 36.251C28.599 13.038 66.11-.139 102.896.001c25.005.146 41.245 8.74 46.849 24.787 2.442 7.166 2.588 15.333.291 23.5-3.161 10.885-7.76 18.625-13.369 25.645 41.536-23.067 87.088-36.395 138.828-40.979 14.224-1.286 29.745-.713 37.364 13.037 3.448 6.161 4.167 13.614 2.157 21.062-1.87 6.88-5.464 12.61-9.776 17.48 41.536-24.068 85.796-44.412 133.942-43.985 8.62.146 19.688 1.005 28.308 7.167 8.192 5.87 13.51 18.052 7.906 27.505l-3.74-2.146c4.172-7.167 0-17.193-6.609-21.922-7.615-5.448-17.818-6.161-25.865-6.307h-1.583c-55.042-.14-105.339 27.797-152.188 56.453z" fill="#121212"/></svg>
